X:1
T:Title
%%score { ( 1 3 ) | ( 2 4 ) }
L:1/8
M:4/4
K:Db
V:1 treble nm="Grand Piano"
V:3 treble 
V:2 bass 
V:4 bass 
V:1
 z4 z2[Q:1/4=104] [F,A,D]2 | [A,DF]2 [A,DF]2 [A,EA]2 [EGA]2 | [DFd]4 [A,DF]4 | %3
 [A,DF]2 [A,DF]2 [CE]2 [A,CE]2 | [A,DF]8 | [B,DG]2 [B,DG]2 [DGB]2 [DGB]2 | [DFA]4 [A,DF]4 | %7
 [B,DF]2 [B,DF]2 [B,D=G]2 [B,DG]2 | [CEA]6 [F,A,D]2 | [A,DF]2 [A,DF]2 [A,EA]2 [EGA]2 | z4 [=Ac]4 | %11
 [DB]2 [DFA]2 [A,EA]2 [A,DF]2 | [A,CE]6 [A,DF]2 | [B,DG]2 [B,DG]2 [DGB]2 [DGB]2 | [DFA]4 A,2 z2 | %15
 [B,DE]2 [G,B,E]2 [F,A,D]2 [E,A,C]2 | [F,A,D]6 z2 | [A,DF]2 [A,DF]2 [A,CE]2 [A,CE]2 | %18
 [A,DF]4 [A,EA]4 | [B,E=G]2 [A,EA]2 [A,DF]2 [=G,DE]2 | [A,CE]8 | [A,EA]2 [A,EA]2 [B,E=G]2 [CEA]2 | %22
 [DFB]4 [FBd]4 | [EAc]2 [D=GB]2 [CA]2 [B,EG]2 | [CEA]8 | [DFA]2 [DFA]2 [EGA]2 [EGA]2 | %26
 [DFA]4 [A,DF]4 | [B,DG]2 [B,DG]2 [DGB]2 [DGB]2 | [DFA]8 | [DFd]2 [DFd]2 [F=Ac]2 [EAc]2 | %30
 [DB]4 A4 | [B,DG]2 [A,DF]2 [DE]2[K:bass] [G,CE]2 | [F,D]8 |] %33
V:2
 z4 z2 D,2 | D,2 D,2 C,2 C,2 | B,,4 A,,4 | D,2 F,2 A,2 A,,2 | D,8 | B,,2 B,,2 G,,2 G,,2 | D,4 D,4 | %7
 B,,2 B,,2 E,2 E,2 | A,,6 D,2 | D,2 D,2 C,2 C,2 | B,,4 z2 E2 | G,2 D,2 C,2 D,2 | A,,6 D,2 | %13
 G,2 G,2 G,,2 G,,2 | D,4 z2 =A,2 | G,,2 G,,2 A,,2 A,,2 | D,6 z2 | D,2 D,2 A,,2 A,,2 | D,4 C,4 | %19
 B,,2 C,2 D,2 E,2 | A,,8 | C,2 C,2 E,2 A,2 | D,4 B,,4 | E,2 E,2 E,2 E,2 | A,,8 | D,2 D,2 C,2 A,,2 | %26
 D,4 D,2 C,2 | B,,2 B,,2 G,,2 G,,2 | D,8 | B,,2 B,,2 F,2 F,2 | G,4 z2 _C2 | E,2 E,2 A,2 A,,2 | %32
 D,8 |] %33
V:3
 x8 | x8 | x8 | x8 | x8 | x8 | x8 | x8 | x8 | x8 | [DFd]4 F2 z2 | x8 | x8 | x8 | z4 [DF]4 | x8 | %16
 x8 | x8 | x8 | x8 | x8 | x8 | x8 | x8 | x8 | x8 | x8 | x8 | x8 | x8 | z4 D2 z2 | x6[K:bass] x2 | %32
 x8 |] %33
V:4
 x8 | x8 | x8 | x8 | x8 | x8 | x8 | x8 | x8 | x8 | z4 F,4 | x8 | x8 | x8 | z4 D,4 | x8 | x8 | x8 | %18
 x8 | x8 | x8 | x8 | x8 | x8 | x8 | x8 | x8 | x8 | x8 | x8 | z4 F,4 | x8 | x8 |] %33

